actions/16/bookmark-new-list.svg

<?xml version="1.0" encoding="UTF-8" standalone="no"?>
<!-- Created with Inkscape (http://www.inkscape.org/) -->

<svg
   xmlns:dc="http://purl.org/dc/elements/1.1/"
   xmlns:cc="http://creativecommons.org/ns#"
   xmlns:rdf="http://www.w3.org/1999/02/22-rdf-syntax-ns#"
   xmlns:svg="http://www.w3.org/2000/svg"
   xmlns="http://www.w3.org/2000/svg"
   xmlns:sodipodi="http://sodipodi.sourceforge.net/DTD/sodipodi-0.dtd"
   xmlns:inkscape="http://www.inkscape.org/namespaces/inkscape"
   version="1.0"
   width="16"
   height="16"
   id="svg2"
   inkscape:version="0.48.3.1 r9886"
   sodipodi:docname="bookmark-new-list.svg">
  <sodipodi:namedview
     pagecolor="#ffffff"
     bordercolor="#666666"
     borderopacity="1"
     objecttolerance="10"
     gridtolerance="10"
     guidetolerance="10"
     inkscape:pageopacity="0"
     inkscape:pageshadow="2"
     inkscape:window-width="1920"
     inkscape:window-height="1032"
     id="namedview32"
     showgrid="true"
     inkscape:zoom="45.254835"
     inkscape:cx="10.69417"
     inkscape:cy="6.6029756"
     inkscape:window-x="-7"
     inkscape:window-y="25"
     inkscape:window-maximized="1"
     inkscape:current-layer="svg2"
     inkscape:snap-bbox="true"
     inkscape:bbox-paths="true"
     inkscape:bbox-nodes="true"
     inkscape:snap-bbox-edge-midpoints="true"
     inkscape:snap-bbox-midpoints="true"
     inkscape:object-paths="true"
     inkscape:snap-intersection-paths="true"
     inkscape:object-nodes="true"
     inkscape:snap-smooth-nodes="true"
     inkscape:snap-midpoints="true"
     inkscape:snap-object-midpoints="true"
     inkscape:snap-center="true"
     fit-margin-top="0"
     fit-margin-left="0"
     fit-margin-right="0"
     fit-margin-bottom="0"
     inkscape:snap-global="true">
    <inkscape:grid
       type="xygrid"
       id="grid3218"
       empspacing="5"
       visible="true"
       enabled="true"
       snapvisiblegridlinesonly="true"
       originx="-11px"
       originy="18px" />
  </sodipodi:namedview>
  <metadata
     id="metadata11">
    <rdf:RDF>
      <cc:Work
         rdf:about="">
        <dc:format>image/svg+xml</dc:format>
        <dc:type
           rdf:resource="http://purl.org/dc/dcmitype/StillImage" />
        <dc:title />
      </cc:Work>
    </rdf:RDF>
  </metadata>
  <defs
     id="defs4" />
  <path
     style="font-size:medium;font-style:normal;font-variant:normal;font-weight:normal;font-stretch:normal;text-indent:0;text-align:start;text-decoration:none;line-height:normal;letter-spacing:normal;word-spacing:normal;text-transform:none;direction:ltr;block-progression:tb;writing-mode:lr-tb;text-anchor:start;baseline-shift:baseline;color:#000000;fill:#485462;fill-opacity:0.7;fill-rule:nonzero;stroke:none;stroke-width:2;marker:none;visibility:visible;display:inline;overflow:visible;enable-background:accumulate;font-family:Sans;-inkscape-font-specification:Sans"
     d="M 7.5625 -0.8125 L 6.875 0.46875 L 5.1875 4.90625 L 0.53125 5.21875 L -2.125 5.4375 L 0 7.46875 L 3.4375 10.25 L 2.28125 14.5625 L 1.71875 17.34375 L 4.25 15.96875 L 6 14.78125 L 6 13.28125 L 3.4375 15 L 4.9375 9.71875 L 3.1875 8.34375 L 2.96875 8.1875 L 0.625 6.34375 L 6.09375 6.125 L 7.96875 1 L 8 1.03125 L 9.875 6.125 L 15.34375 6.34375 L 14.5 7 L 16 7 L 16 7.375 L 16.09375 7.3125 L 18.125 5.46875 L 15.375 5.15625 L 10.65625 4.96875 L 9.03125 0.40625 L 8.96875 0.1875 L 8.8125 0.03125 L 8.78125 0 L 7.5625 -0.8125 z M 8 9 L 8 10 L 9 10 L 15 10 L 16 10 L 16 9 L 13.90625 9 L 11.9375 9 L 11 9 L 9 9 L 8 9 z M 8 11 L 8 11.90625 L 8 12 L 9 12 L 15 12 L 16 12 L 16 11 L 15 11 L 9 11 L 8 11 z M 8 13 L 8 13.4375 L 8 14 L 9 14 L 15 14 L 16 14 L 16 13 L 15 13 L 9 13 L 8 13 z M 8 15 L 8 16 L 9 16 L 15 16 L 16 16 L 16 15 L 15 15 L 9 15 L 8 15 z "
     id="path3916" />
  <path
     id="path2983"
     d="M 7.9687491,0.999998 6.09375,6.1249981 0.62499765,6.3437481 2.9687479,8.1874982 3.1874991,8.343748 l 1.7500003,1.375 -1.5000003,5.28125 3.5624986,-2.375 1.0000002,-0.71875 0,-0.90625 0,-0.9999998 0,-1.0000003 1.0000003,0 2.9375008,0 L 12.781248,8.343748 15.34375,6.3437481 9.875,6.1249981 7.9999979,1.031248 7.9687491,0.999998 z m 1.0312491,9.0000002 0,0.9999998 6.0000018,0 0,-0.9999998 -6.0000018,0 z m 0,1.9999998 0,1 6.0000018,0 0,-1 -6.0000018,0 z m 0,2 0,1 6.0000018,0 0,-1 -6.0000018,0 z"
     style="fill:#EDEFF3;fill-opacity:0.758;fill-rule:nonzero;stroke:none"
     inkscape:connector-curvature="0" />
</svg>

<?xml version="1.0" encoding="UTF-8"?>
<svg id="a" width="16" height="16" version="1.0" xmlns="http://www.w3.org/2000/svg" xmlns:cc="http://creativecommons.org/ns#" xmlns:dc="http://purl.org/dc/elements/1.1/" xmlns:rdf="http://www.w3.org/1999/02/22-rdf-syntax-ns#">
	<metadata id="d">
		<rdf:RDF>
			<cc:Work rdf:about="">
				<dc:format>image/svg+xml</dc:format>
				<dc:type rdf:resource="http://purl.org/dc/dcmitype/StillImage"/>
				<dc:title/>
			</cc:Work>
		</rdf:RDF>
	</metadata>
	<defs>
		<style id="current-color-scheme" type="text/css">.ColorScheme-Text {color:#090d11;}.ColorScheme-Background{color:#ffffff;}.ColorScheme-NeutralText {color:#feab00;}</style>
	</defs>
	<path id="c" d="m7.9785 2.0293c-0.24377 1.663e-4 -0.32813 0.11201-0.37695 0.16211-0.048824 0.050101-0.069895 0.08334-0.089844 0.11523-0.039898 0.063797-0.066829 0.11965-0.095703 0.18359-0.057748 0.12788-0.11856 0.28665-0.1875 0.47461-0.13787 0.37592-0.30157 0.86384-0.46484 1.3555-0.16328 0.4916-0.32544 0.98617-0.45312 1.3574-0.051245 0.149-0.090011 0.25852-0.12695 0.35742-0.10572 0.0047101-0.22259 0.0088498-0.38086 0.011719-0.39291 0.00712-0.91321 0.0097499-1.4316 0.013672-0.51847 0.00392-1.0351 0.010016-1.4355 0.025391-0.20023 0.00769-0.3702 0.017664-0.50977 0.033203-0.069784 0.00777-0.13008 0.014911-0.20312 0.033203-0.036521 0.0091499-0.075931 0.017838-0.13867 0.048828-0.062743 0.03099-0.19436 0.076943-0.26953 0.30859-0.075172 0.23166 0.0064495 0.34633 0.039062 0.4082 0.032611 0.061869 0.057827 0.092287 0.082031 0.12109 0.048408 0.05762 0.090627 0.099297 0.14258 0.14648 0.1039 0.09438 0.23689 0.20259 0.39453 0.32617 0.31528 0.24715 0.73091 0.55429 1.1484 0.86133 0.41757 0.30704 0.83638 0.61161 1.1504 0.84766 0.12618 0.094854 0.218 0.16672 0.30078 0.23242-0.028196 0.10194-0.059237 0.2138-0.10547 0.36523-0.11463 0.3755-0.2732 0.86946-0.42969 1.3633-0.15649 0.4938-0.3108 0.98787-0.41992 1.373-0.054559 0.19261-0.09862 0.35674-0.12695 0.49414-0.014168 0.0687-0.026093 0.12808-0.03125 0.20312-0.00258 0.03752-0.0042508 0.077293 0.0058594 0.14648 0.010115 0.069189 0.011674 0.20856 0.20898 0.35156s0.33141 0.10171 0.40039 0.089844c0.068978-0.01186 0.10767-0.026926 0.14258-0.041016 0.069816-0.02819 0.12261-0.057027 0.18359-0.091797 0.12196-0.06955 0.26332-0.1599 0.42969-0.27148 0.33273-0.22317 0.75442-0.52238 1.1758-0.82422 0.42135-0.30184 0.84227-0.60664 1.1641-0.83203 0.12968-0.09084 0.22621-0.15644 0.31445-0.21484 0.0042767 0.002823 0.011305 0.006912 0.015625 0.009766v-1.084c-0.0099621-3.02e-4 -0.0043607-0.003915-0.015625-0.003906-0.15656 1.07e-4 -0.18226 0.031505-0.21875 0.046875-0.036487 0.01537-0.062243 0.028929-0.087891 0.042969-0.051295 0.02809-0.10062 0.058663-0.1582 0.095703-0.11517 0.07408-0.25786 0.1728-0.42383 0.28906-0.33193 0.23252-0.75254 0.5375-1.1719 0.83789-0.24546 0.17584-0.45021 0.3141-0.67383 0.4707 0.079617-0.26089 0.1491-0.49758 0.24023-0.78516 0.15573-0.49142 0.31533-0.98572 0.43359-1.373 0.059131-0.19369 0.10783-0.35983 0.14258-0.49219 0.017376-0.06618 0.030199-0.12226 0.041016-0.17969 0.00541-0.028715 0.01037-0.058236 0.013672-0.097656 0.0033-0.039419 0.026996-0.073945-0.021484-0.22266-0.048482-0.14871-0.087377-0.16149-0.11328-0.19141-0.025904-0.029917-0.045108-0.050286-0.066406-0.070312-0.042597-0.040053-0.08952-0.077832-0.14258-0.12109-0.10611-0.086532-0.24233-0.19074-0.4043-0.3125-0.32394-0.24351-0.74265-0.55187-1.1582-0.85742-0.24265-0.17842-0.43848-0.32846-0.65625-0.49219 0.2725-0.00496 0.51709-0.011395 0.81836-0.013672 0.51597-0.0039 1.038-0.0063199 1.4434-0.013672 0.20267-0.00367 0.37497-0.0096901 0.51172-0.017578 0.068375-0.00394 0.12753-0.0061999 0.18555-0.013672 0.029009-0.00373 0.057154-0.0085301 0.095703-0.017578 0.038549-0.00904 0.076537 2.163e-4 0.20312-0.091797 0.12659-0.092013 0.12991-0.13216 0.15039-0.16602 0.020476-0.033858 0.032437-0.059514 0.044922-0.085938 0.024969-0.052848 0.047471-0.10614 0.072266-0.16992 0.049591-0.12755 0.10796-0.29091 0.17383-0.48242 0.13173-0.38302 0.29259-0.87604 0.45508-1.3652 0.094991-0.28601 0.17891-0.51961 0.26758-0.77734 0.089011 0.25759 0.1722 0.49149 0.26758 0.77734 0.16316 0.48901 0.32478 0.98042 0.45703 1.3633 0.066126 0.19142 0.12406 0.35493 0.17383 0.48242 0.024883 0.063743 0.047225 0.11711 0.072266 0.16992 0.01252 0.026407 0.024399 0.054061 0.044922 0.087891 0.020523 0.03383 0.023674 0.072224 0.15039 0.16406 0.12672 0.09184 0.16652 0.082805 0.20508 0.091797 0.0095 0.0022 0.015058 0.0022962 0.023438 0.0039062h4.6758c0.01879-0.023412 0.036447-0.043983 0.060547-0.089844 0.03253-0.061914 0.1126-0.17665 0.03711-0.4082-0.0755-0.23155-0.20675-0.27769-0.26953-0.30859-0.06278-0.030905-0.10214-0.039732-0.13867-0.048828-0.07307-0.018192-0.13528-0.025528-0.20508-0.033203-0.13959-0.015352-0.30757-0.025789-0.50781-0.033203-0.40049-0.014825-0.91712-0.020226-1.4355-0.023438-0.51848-0.00321-1.0387-0.0031756-1.4316-0.0097656-0.15828-0.00265-0.27513-0.0091099-0.38086-0.013672-0.03709-0.09886-0.077446-0.20846-0.12891-0.35742-0.1282-0.3711-0.28919-0.86216-0.45312-1.3535-0.16395-0.49138-0.33036-0.98171-0.46875-1.3574-0.069193-0.18786-0.12958-0.34486-0.1875-0.47266-0.028961-0.0639-0.055718-0.11985-0.095703-0.18359-0.019992-0.031871-0.040951-0.065204-0.089844-0.11523-0.048892-0.050034-0.13318-0.16228-0.37695-0.16211zm3.1797 5.9707c-0.19205 0.14191-0.40642 0.30079-0.56445 0.41992-0.1618 0.12198-0.30026 0.22582-0.40625 0.3125-0.053 0.043338-0.098085 0.080987-0.14062 0.12109-0.02127 0.020056-0.042489 0.040362-0.068359 0.070312-0.010184 0.011792-0.029658 0.06001-0.042969 0.076172h1.5527c0.26814-0.19973 0.54469-0.40557 0.85547-0.63477 0.17659-0.13022 0.31787-0.23953 0.48633-0.36523h-1.6719zm-2.1582 2v1h6v-1h-6zm0 2v1h6v-1h-6zm0 2v1h6v-1h-6z" style="fill:currentColor;fill-opacity:0.75;" class="ColorScheme-Text"/>
	<path id="b" d="m7.9766-0.55078c-0.24333 1.6615e-4 -0.3253 0.10906-0.37695 0.16016-0.051655 0.051099-0.077276 0.088116-0.10156 0.125-0.048578 0.073768-0.086098 0.14589-0.12695 0.23047-0.081715 0.16916-0.17217 0.38675-0.27539 0.64648-0.20643 0.51948-0.45699 1.1998-0.70508 1.8848-0.24809 0.68501-0.49322 1.3741-0.6875 1.8945-0.09714 0.26021-0.18175 0.47934-0.24414 0.62891-0.00352 0.00843-0.0063856 0.0095802-0.0097656 0.017578-0.0080601 7.051e-4 -0.0091202 0.0012531-0.017578 0.0019531-0.1615 0.013343-0.39637 0.0267-0.67383 0.039062-0.55491 0.024728-1.2856 0.046982-2.0137 0.072266-0.72805 0.025284-1.452 0.053262-2.0098 0.089844-0.27888 0.018291-0.51509 0.038749-0.70117 0.064453-0.09304 0.012852-0.17073 0.025303-0.25586 0.048828-0.042566 0.011763-0.085881 0.023211-0.15039 0.056641-0.06451 0.033429-0.1945 0.079051-0.26953 0.31055-0.075035 0.23149 0.0025252 0.34523 0.035156 0.41016 0.032631 0.064922 0.062274 0.10027 0.089844 0.13477 0.05514 0.069 0.10993 0.12446 0.17773 0.18945 0.13561 0.12999 0.31419 0.28445 0.5293 0.46289 0.43022 0.35688 1.0014 0.80426 1.5762 1.252 0.57476 0.44765 1.153 0.89466 1.5879 1.2402 0.21743 0.1728 0.40048 0.32217 0.52344 0.42773 0.00651 0.0056 0.0074899 0.0063988 0.013672 0.011719-0.00184 8e-3 -0.0019363 0.011161-0.0039062 0.019531-0.037217 0.15773-0.097889 0.38463-0.17188 0.65234-0.14796 0.53544-0.3518 1.2392-0.55273 1.9395-0.20094 0.70029-0.39759 1.3976-0.53516 1.9395-0.068783 0.2709-0.12319 0.50062-0.15625 0.68555-0.016529 0.092468-0.029268 0.17152-0.033203 0.25976-0.00197 0.04412-0.0040375 0.088466 0.0078125 0.16016 0.011855 0.07169 0.017892 0.20866 0.21484 0.35156 0.19696 0.1429 0.32662 0.10277 0.39844 0.091797 0.071823-0.01098 0.11297-0.027409 0.1543-0.042969 0.082657-0.03112 0.15552-0.064965 0.23828-0.10938 0.16553-0.08882 0.3654-0.21187 0.60156-0.36133 0.47232-0.29892 1.0744-0.70492 1.6777-1.1133 0.458-0.31 0.87228-0.58753 1.2695-0.85352v-1.2031c-0.055696 0.036255-0.09242 0.05795-0.15234 0.097656-0.47295 0.31338-1.0746 0.72593-1.6758 1.1328-0.55971 0.37884-1.0997 0.73669-1.5391 1.0176 0.13064-0.50476 0.30388-1.1298 0.49023-1.7793 0.20022-0.6978 0.40356-1.3984 0.55469-1.9453 0.075563-0.27344 0.13869-0.50939 0.18164-0.69141 0.021473-0.09101 0.038863-0.16826 0.050781-0.24023 0.00596-0.03599 0.010818-0.068128 0.013672-0.11133 0.00286-0.04319 0.021939-0.079269-0.025391-0.22461s-0.083582-0.16209-0.11133-0.19531c-0.027744-0.033225-0.052118-0.056456-0.078125-0.082031-0.052013-0.051152-0.1107-0.10511-0.18164-0.16602-0.14189-0.12181-0.3287-0.27467-0.55078-0.45117-0.44417-0.353-1.023-0.80003-1.5957-1.2461-0.53376-0.41572-1.0443-0.81725-1.4473-1.1484 0.52071-0.031784 1.1695-0.060498 1.8457-0.083984 0.72546-0.025194 1.4567-0.045056 2.0234-0.070312 0.28339-0.012629 0.52458-0.027573 0.71094-0.042969 0.09318-0.0076999 0.17201-0.016438 0.24414-0.027344 0.036064-0.00545 0.069367-0.0089003 0.11133-0.019531 0.041959-0.010629 0.081488-0.00382 0.20508-0.09375 0.12359-0.08993 0.12932-0.12936 0.15234-0.16602 0.023023-0.036656 0.038402-0.066969 0.054688-0.099609 0.032571-0.065279 0.065566-0.13831 0.10156-0.22461 0.071993-0.1726 0.15664-0.39829 0.25586-0.66406 0.19844-0.53155 0.4442-1.2217 0.69141-1.9043 0.23042-0.63621 0.45798-1.2448 0.64844-1.7305 0.19112 0.48543 0.4152 1.0946 0.64648 1.7305 0.24814 0.68223 0.4981 1.3711 0.69727 1.9023 0.099581 0.26564 0.18558 0.49157 0.25781 0.66406 0.03612 0.086248 0.066949 0.15742 0.099609 0.22266 0.01633 0.032617 0.031608 0.06494 0.054688 0.10156 0.02307 0.036625 0.030587 0.074304 0.1543 0.16406 0.12371 0.089761 0.16311 0.083179 0.20508 0.09375s0.075258 0.01608 0.11133 0.021484c0.04389 0.00658 0.097828 0.01252 0.14844 0.017578 0.03742-0.00888 0.073061-0.023438 0.11328-0.023438h6.1504c0.02128-0.0683 0.032161-0.15626-0.011719-0.29102-0.07535-0.23139-0.20694-0.27525-0.27148-0.30859-0.06456-0.033341-0.10781-0.044937-0.15039-0.056641-0.08516-0.023409-0.1628-0.036103-0.25586-0.048828-0.18612-0.02545-0.42227-0.046543-0.70117-0.064453-0.5578-0.035821-1.2817-0.063601-2.0098-0.087891-0.72809-0.02429-1.4587-0.04439-2.0137-0.068359-0.27747-0.011985-0.51231-0.025941-0.67383-0.039063-0.0085-6.871e-4 -0.011471-0.0012531-0.019531-0.0019531-0.0034-0.00799-0.004313-0.0091501-0.007813-0.017578-0.0626-0.14948-0.14664-0.36883-0.24414-0.62891-0.19499-0.52015-0.44238-1.2079-0.69141-1.8926-0.24903-0.68467-0.49989-1.3656-0.70703-1.8848-0.10357-0.2596-0.1954-0.47549-0.27734-0.64453-0.040974-0.084523-0.076321-0.15677-0.125-0.23047-0.024339-0.036851-0.04984-0.075928-0.10156-0.12695-0.051726-0.051028-0.13558-0.15837-0.37891-0.1582zm6.0762 7.5508c-0.16515 0.13068-0.29545 0.23965-0.46875 0.375-0.28665 0.22389-0.52686 0.41264-0.79883 0.625h1.6172c0.45122-0.35372 0.8973-0.70468 1.2559-1h-1.6055zm-6.0527 2v1h1 6 1v-1h-2.0938-1.9688-0.9375-2-1zm0 2v0.90625 0.09375h1 6 1v-1h-1-6-1zm0 2v0.4375 0.5625h1 6 1v-1h-1-6-1zm0 2v1h1 6 1v-1h-1-6-1z" style="fill:currentColor;fill-opacity:0.5;" class="ColorScheme-Background"/>
</svg>
